src/assets/miau.svg

<svg width="355" height="120" viewBox="0 0 355 120" xmlns="http://www.w3.org/2000/svg">
<path opacity="0.25" d="M261.192 3C257.927 3 254.67 4.21432 252.173 6.64946C249.777 8.98746 248.533 12.0249 248.439 15.0947V15.8298C248.533 18.8899 249.777 21.9274 252.173 24.2686L287.738 58.9952L252.173 93.7283C249.777 96.0696 248.533 99.107 248.439 102.167V102.905C248.533 105.972 249.777 109.009 252.173 111.344C254.586 113.698 257.723 114.919 260.877 114.99H261.512C264.666 114.919 267.798 113.698 270.21 111.344L271.055 110.528H271.049C270.531 109.932 270.084 109.301 269.702 108.634C269.426 108.164 269.183 107.679 268.979 107.177C268.801 106.756 268.652 106.325 268.52 105.888C268.52 105.878 268.52 105.872 268.51 105.862C268.51 105.855 268.51 105.839 268.503 105.833C267.61 102.718 267.979 99.3337 269.624 96.4549L269.63 96.4452C269.637 96.429 269.647 96.4225 269.653 96.4063C269.663 96.3837 269.679 96.3675 269.685 96.3448C269.692 96.3448 269.692 96.3351 269.692 96.3351C269.773 96.2023 269.851 96.0696 269.935 95.9368C269.974 95.8817 270.006 95.8267 270.045 95.7716C270.524 95.043 271.088 94.363 271.735 93.7283L280.268 85.3932L285.961 79.8331L294.455 71.5433L307.301 58.9952L300.303 52.1691L285.961 38.1638L280.268 32.607L271.735 24.2686C271.573 24.1035 271.408 23.9415 271.249 23.7699C270.712 23.1806 270.242 22.5556 269.834 21.8982C269.624 21.5615 269.436 21.2085 269.261 20.8555H269.255C269.248 20.8264 269.232 20.8005 269.222 20.7778C269.216 20.7713 269.216 20.7616 269.206 20.7551C269.2 20.7325 269.193 20.7163 269.183 20.7001C267.853 17.8731 267.681 14.6705 268.636 11.7367C268.643 11.7205 268.643 11.7043 268.652 11.6881V11.6817C268.847 11.0955 269.09 10.5224 269.371 9.95892C269.436 9.83263 269.504 9.71605 269.575 9.593C269.983 8.84821 270.476 8.13581 271.049 7.46874H271.055L270.21 6.64946C267.72 4.21432 264.456 3 261.192 3Z" fill="var(--vi-body-color)"/>
<path opacity="0.4" d="M280.914 3.0311H280.451C277.29 3.08615 274.149 4.29077 271.73 6.65466L271.05 7.47069V7.47718C270.481 8.14425 269.985 8.84694 269.571 9.59173C269.499 9.71802 269.438 9.84107 269.376 9.96736C269.085 10.5243 268.852 11.0943 268.654 11.6804V11.6901C268.648 11.7063 268.638 11.7192 268.631 11.7451C268.249 12.9336 268.045 14.1706 268.029 15.414V15.6569C268.045 17.3796 268.427 19.1024 269.179 20.6988C269.195 20.715 269.201 20.7377 269.211 20.7539C269.211 20.7636 269.218 20.77 269.218 20.7765C269.234 20.8024 269.244 20.8316 269.256 20.8575C269.431 21.2072 269.626 21.5602 269.836 21.8969C270.238 22.5543 270.714 23.1825 271.254 23.7686C271.41 23.9403 271.569 24.1054 271.73 24.2706L280.273 32.6057L285.962 38.1657L300.304 52.1678L307.302 59.0037L294.456 71.5453L285.962 79.8416L280.273 85.3984L271.73 93.7303C271.083 94.3617 270.519 95.0515 270.04 95.7736C270.008 95.8254 269.969 95.8805 269.94 95.9355C269.852 96.0683 269.775 96.2043 269.697 96.3371C269.687 96.3371 269.687 96.3435 269.687 96.3435C269.674 96.3662 269.664 96.3824 269.648 96.4051C269.642 96.4212 269.632 96.431 269.626 96.4439C269.626 96.4439 269.626 96.4536 269.619 96.4601C268.576 98.2865 268.052 100.314 268.029 102.347V102.59C268.045 103.678 268.201 104.776 268.505 105.832C268.505 105.848 268.515 105.854 268.515 105.87C268.515 105.877 268.521 105.887 268.521 105.887C268.648 106.324 268.803 106.754 268.975 107.185C269.188 107.677 269.431 108.163 269.703 108.633C270.089 109.3 270.532 109.934 271.05 110.527L271.73 111.349C274.149 113.7 277.281 114.921 280.444 114.999H281.063C283.913 114.928 286.714 113.878 289.01 111.952L288.249 111.349C283.271 106.482 283.271 98.5973 288.249 93.7303L323.804 59.0037L288.249 24.2706C283.271 19.4068 283.271 11.5088 288.249 6.65466L289.01 6.03617C286.685 4.08677 283.803 3.07968 280.914 3.0311Z" fill="var(--vi-body-color)"/>
<path opacity="0.6" d="M350.868 50.1905L306.288 6.64944C301.544 2.01555 294.018 1.8504 289.008 6.04713L288.251 6.64944C283.264 11.5197 283.264 19.4015 288.251 24.2718L323.813 58.9984L288.251 93.7315C283.264 98.5921 283.264 106.484 288.251 111.344L289.008 111.956C291.398 113.951 294.316 115 297.269 115C300.533 115 303.797 113.779 306.288 111.344L350.868 67.8031C355.845 62.9426 355.845 55.051 350.868 50.1905Z" fill="var(--vi-body-color)"/>
<path opacity="0.6" d="M31.6942 22.942L23.3152 23.005C23.0632 21.367 22.4962 20.17 21.4882 19.54C20.4802 18.847 19.0312 18.532 17.1412 18.532C15.5662 18.532 14.3062 18.784 13.4242 19.351C12.5422 19.918 12.1012 20.737 12.1012 21.745C12.1012 22.879 12.6052 23.698 13.6132 24.202C14.6212 24.643 16.4482 25.147 19.0312 25.714C19.5352 25.777 19.8502 25.84 20.0392 25.903C21.5512 26.155 22.8112 26.407 23.6932 26.659C24.5752 26.911 25.7092 27.289 26.9692 27.793C28.2922 28.297 29.3002 28.927 29.9932 29.557C30.7492 30.187 31.3792 31.069 31.8832 32.14C32.4502 33.274 32.7022 34.534 32.7022 35.92C32.7022 39.322 31.3792 42.031 28.7332 43.984C26.0872 46 22.4962 46.945 17.8342 46.945C13.4242 46.945 9.83322 46 6.93522 44.11C4.10022 42.22 2.65122 39.322 2.58822 35.416H11.0932C11.4082 39.07 13.7392 40.834 18.0232 40.834C19.8502 40.834 21.2992 40.519 22.3702 39.763C23.4412 39.007 23.9452 38.062 23.9452 36.802C23.9452 35.605 23.5042 34.723 22.4962 34.219C21.5512 33.715 19.7872 33.211 17.1412 32.581C16.9522 32.581 16.7632 32.518 16.6372 32.455C16.3852 32.392 15.6922 32.266 14.6842 32.014C13.6762 31.825 12.9832 31.699 12.6052 31.573C12.2272 31.447 11.5342 31.258 10.6522 31.006C9.77022 30.754 9.07722 30.565 8.63622 30.313C8.25822 30.061 7.69122 29.809 6.99822 29.431C6.30522 29.053 5.80122 28.675 5.42322 28.234C5.10822 27.856 4.73022 27.352 4.35222 26.785C3.97422 26.218 3.65922 25.588 3.53322 24.832C3.40722 24.139 3.34422 23.383 3.34422 22.501C3.34422 19.351 4.54122 16.894 7.06122 15.13C9.51822 13.429 13.0462 12.547 17.5822 12.547C21.6142 12.547 24.9532 13.429 27.5992 15.067C30.1822 16.768 31.5682 19.414 31.6942 22.942ZM68.6191 35.92C67.6111 39.448 65.7211 42.157 63.0121 44.047C60.3031 46 57.0901 46.945 53.3101 46.945C48.3331 46.945 44.3011 45.433 41.2771 42.283C38.2531 39.196 36.7411 35.101 36.7411 29.935C36.7411 24.895 38.2531 20.737 41.3401 17.461C44.3641 14.185 48.2701 12.547 53.0581 12.547C57.9721 12.547 61.8781 14.248 64.7761 17.587C67.6741 20.926 69.1231 25.462 69.1231 31.132V32.014H45.8131C45.8131 34.849 46.5061 36.991 47.8291 38.44C49.1521 39.952 51.0421 40.645 53.4361 40.645C56.5861 40.645 58.7911 39.07 60.0511 35.92H68.6191ZM59.9881 26.344C59.7991 24.202 59.1061 22.501 57.9091 21.115C56.7751 19.729 55.1371 19.036 52.9951 19.036C51.0421 19.036 49.4041 19.729 48.0811 20.989C46.8211 22.312 46.0021 24.076 45.7501 26.344H59.9881ZM124.325 46H115.253V26.596C115.253 24.454 114.875 22.816 114.245 21.682C113.552 20.548 112.166 19.918 110.087 19.918C105.929 19.918 103.85 22.564 103.85 27.73V46H94.9039V26.218C94.9039 24.202 94.5259 22.69 93.8959 21.556C93.2029 20.422 91.8799 19.855 89.9899 19.855C85.6429 19.855 83.5009 22.69 83.5009 28.36V46H74.5549V13.492H83.0599V17.965C85.5799 14.437 89.0449 12.61 93.3919 12.61C97.8649 12.61 100.952 14.437 102.59 17.965C105.173 14.437 108.701 12.61 113.237 12.61C116.765 12.61 119.537 13.681 121.427 15.76C123.317 17.839 124.325 20.611 124.325 24.139V46ZM139.776 13.492V17.524C142.107 14.248 145.446 12.61 149.856 12.61C154.203 12.61 157.731 14.185 160.377 17.335C163.023 20.485 164.346 24.706 164.346 29.935C164.346 35.038 163.023 39.133 160.44 42.22C157.857 45.307 154.455 46.819 150.234 46.819C145.824 46.819 142.485 45.244 140.217 41.968V57.529H131.334V13.492H139.776ZM147.651 19.792C145.194 19.792 143.304 20.674 141.918 22.438C140.532 24.202 139.902 26.659 139.902 29.809C139.902 32.959 140.595 35.416 141.981 37.18C143.367 38.944 145.257 39.826 147.714 39.826C150.108 39.826 151.935 38.944 153.321 37.18C154.707 35.416 155.4 33.022 155.4 29.935C155.4 26.785 154.707 24.328 153.321 22.501C151.935 20.737 150.045 19.792 147.651 19.792ZM190.952 12.925V21.178C189.692 20.926 188.495 20.8 187.487 20.8C184.526 20.8 182.384 21.745 180.998 23.635C179.612 25.525 178.919 27.982 178.919 31.132V46H169.973V13.492H178.478V19.477C180.62 15.004 184.085 12.736 188.999 12.736C189.377 12.736 190.07 12.799 190.952 12.925ZM223.781 35.92C222.773 39.448 220.883 42.157 218.174 44.047C215.465 46 212.252 46.945 208.472 46.945C203.495 46.945 199.463 45.433 196.439 42.283C193.415 39.196 191.903 35.101 191.903 29.935C191.903 24.895 193.415 20.737 196.502 17.461C199.526 14.185 203.432 12.547 208.22 12.547C213.134 12.547 217.04 14.248 219.938 17.587C222.836 20.926 224.285 25.462 224.285 31.132V32.014H200.975C200.975 34.849 201.668 36.991 202.991 38.44C204.314 39.952 206.204 40.645 208.598 40.645C211.748 40.645 213.953 39.07 215.213 35.92H223.781ZM215.15 26.344C214.961 24.202 214.268 22.501 213.071 21.115C211.937 19.729 210.299 19.036 208.157 19.036C206.204 19.036 204.566 19.729 203.243 20.989C201.983 22.312 201.164 24.076 200.912 26.344H215.15ZM55.7263 106H46.6543V86.596C46.6543 84.454 46.2763 82.816 45.6463 81.682C44.9533 80.548 43.5673 79.918 41.4883 79.918C37.3303 79.918 35.2513 82.564 35.2513 87.73V106H26.3053V86.218C26.3053 84.202 25.9273 82.69 25.2973 81.556C24.6043 80.422 23.2813 79.855 21.3913 79.855C17.0443 79.855 14.9023 82.69 14.9023 88.36V106H5.95626V73.492H14.4613V77.965C16.9813 74.437 20.4463 72.61 24.7933 72.61C29.2663 72.61 32.3533 74.437 33.9913 77.965C36.5743 74.437 40.1023 72.61 44.6383 72.61C48.1663 72.61 50.9383 73.681 52.8283 75.76C54.7183 77.839 55.7263 80.611 55.7263 84.139V106ZM71.933 61.144V68.704H62.987V61.144H71.933ZM71.933 73.492V106H62.987V73.492H71.933ZM94.9792 72.547C99.9562 72.547 103.988 74.122 107.012 77.272C110.036 80.422 111.611 84.58 111.611 89.746C111.611 94.975 110.036 99.133 107.012 102.283C103.988 105.433 99.8932 107.008 94.8532 107.008C89.7502 107.008 85.6552 105.433 82.6312 102.283C79.5442 99.133 78.0322 94.975 78.0322 89.746C78.0322 84.58 79.5442 80.422 82.6942 77.272C85.7812 74.122 89.8762 72.547 94.9792 72.547ZM94.7272 79.351C92.3332 79.351 90.4432 80.296 89.0572 82.186C87.6712 84.013 86.9782 86.533 86.9782 89.809C86.9782 93.085 87.6712 95.668 89.0572 97.558C90.4432 99.385 92.3332 100.33 94.8532 100.33C97.3102 100.33 99.2002 99.385 100.586 97.495C101.972 95.605 102.665 93.022 102.665 89.683C102.665 86.47 101.909 83.95 100.523 82.123C99.1372 80.296 97.1842 79.351 94.7272 79.351ZM126.689 61.144V106H117.743V61.144H126.689ZM163.973 106H154.838C154.586 105.181 154.334 104.11 154.208 102.85C151.499 105.622 147.971 106.945 143.687 106.945C140.096 106.945 137.261 106.126 135.182 104.362C133.166 102.598 132.095 100.204 132.095 97.117C132.095 95.731 132.284 94.534 132.662 93.463C133.04 92.455 133.607 91.573 134.426 90.817C135.245 90.124 136.001 89.557 136.757 89.053C137.513 88.612 138.521 88.234 139.781 87.919C141.104 87.667 142.175 87.415 142.931 87.289C143.75 87.163 144.884 86.974 146.333 86.785C149.483 86.407 151.562 85.966 152.633 85.462C153.704 85.021 154.271 84.139 154.271 82.879C154.271 79.981 152.318 78.532 148.412 78.532C146.333 78.532 144.821 78.91 143.876 79.666C142.868 80.422 142.238 81.682 141.986 83.509H133.607C134.111 76.201 139.088 72.547 148.664 72.547C158.114 72.547 162.839 76.075 162.839 83.131V97.18C162.839 101.338 163.217 104.236 163.973 106ZM154.145 90.187C153.137 90.817 150.995 91.447 147.845 91.951C145.199 92.329 143.498 92.896 142.679 93.526C141.797 94.282 141.293 95.416 141.293 96.802C141.293 98.125 141.734 99.196 142.616 99.952C143.498 100.708 144.695 101.086 146.207 101.086C148.601 101.086 150.554 100.456 152.003 99.196C153.452 97.936 154.145 96.109 154.145 93.841V90.187ZM200.527 106H191.455V87.037C191.455 84.769 191.077 83.005 190.321 81.808C189.565 80.611 188.053 79.981 185.911 79.981C181.186 79.981 178.855 82.879 178.855 88.549V106H169.972V73.492H178.477V78.028C181.123 74.437 184.714 72.61 189.25 72.61C192.715 72.61 195.487 73.618 197.503 75.634C199.519 77.65 200.527 80.548 200.527 84.265V106ZM225.146 73.492V79.603H218.531V94.912C218.531 95.857 218.531 96.55 218.594 96.991C218.594 97.432 218.783 97.873 219.035 98.377C219.287 98.818 219.665 99.133 220.169 99.259C220.673 99.385 221.429 99.448 222.437 99.448C223.508 99.448 224.39 99.448 225.146 99.322V106.126C222.941 106.315 221.114 106.378 219.728 106.378C215.822 106.378 213.113 105.748 211.727 104.362C210.341 102.976 209.648 100.33 209.648 96.424V79.54H204.23V73.492H209.648V63.664H218.531V73.492H225.146Z" fill="var(--vi-body-color)"/>
</svg>

<svg xmlns="http://www.w3.org/2000/svg" width="355" height="120" viewBox="0 0 355 120"><path fill="var(--vi-body-color)" d="M261.192 3c-3.265 0-6.522 1.214-9.019 3.65a12.28 12.28 0 0 0-3.734 8.445v.735c.094 3.06 1.338 6.097 3.734 8.439l35.565 34.726-35.565 34.733c-2.396 2.342-3.64 5.379-3.734 8.439v.738a12.27 12.27 0 0 0 3.734 8.439 12.86 12.86 0 0 0 8.704 3.646h.635a12.84 12.84 0 0 0 8.698-3.646l.845-.816h-.006a12 12 0 0 1-1.347-1.894q-.416-.704-.723-1.457a13 13 0 0 1-.459-1.289c0-.01 0-.016-.01-.026 0-.007 0-.023-.007-.029a12.15 12.15 0 0 1 1.121-9.378l.006-.01c.007-.016.017-.022.023-.039.01-.022.026-.038.032-.061.007 0 .007-.01.007-.01.081-.133.159-.265.243-.398.039-.055.071-.11.11-.165a12.4 12.4 0 0 1 1.69-2.044l8.533-8.335 5.693-5.56 8.494-8.29 12.846-12.548-6.998-6.826-14.342-14.005-5.693-5.557-8.533-8.338c-.162-.165-.327-.327-.486-.5a13 13 0 0 1-1.415-1.87c-.21-.338-.398-.69-.573-1.044h-.006c-.007-.029-.023-.055-.033-.077-.006-.007-.006-.016-.016-.023a.2.2 0 0 0-.023-.055 12.18 12.18 0 0 1-.547-8.963c.007-.017.007-.033.016-.049v-.006a13 13 0 0 1 .719-1.723c.065-.126.133-.243.204-.366.408-.745.901-1.457 1.474-2.124h.006l-.845-.82C267.72 4.214 264.456 3 261.192 3" opacity=".25"/><path fill="var(--vi-body-color)" d="M280.914 3.031h-.463c-3.161.055-6.302 1.26-8.721 3.624l-.68.816v.006a13 13 0 0 0-1.479 2.115c-.072.126-.133.25-.195.375a12 12 0 0 0-.722 1.713v.01c-.006.016-.016.03-.023.055a12.5 12.5 0 0 0-.602 3.669v.243a12.1 12.1 0 0 0 1.15 5.042c.016.016.022.039.032.055 0 .01.007.016.007.022.016.026.026.056.038.082a12.8 12.8 0 0 0 1.998 2.91q.234.256.476.503l8.543 8.335 5.689 5.56 14.342 14.002 6.998 6.836-12.846 12.541-8.494 8.297-5.689 5.556-8.543 8.332a12.6 12.6 0 0 0-1.69 2.044c-.032.051-.071.106-.1.162-.088.132-.165.268-.243.401-.01 0-.01.007-.01.007l-.039.061c-.006.016-.016.026-.022.039 0 0 0 .01-.007.016a12.1 12.1 0 0 0-1.59 5.887v.243c.016 1.088.172 2.186.476 3.242 0 .016.01.022.01.038 0 .007.006.017.006.017.127.437.282.867.454 1.298a14 14 0 0 0 .728 1.448c.386.667.829 1.301 1.347 1.894l.68.822a12.92 12.92 0 0 0 8.714 3.65h.619c2.85-.071 5.651-1.121 7.947-3.047l-.761-.603a12.26 12.26 0 0 1 0-17.619l35.555-34.726-35.555-34.733a12.257 12.257 0 0 1 0-17.616l.761-.619a12.94 12.94 0 0 0-8.096-3.005" opacity=".4"/><path fill="var(--vi-body-color)" d="m350.868 50.19-44.58-43.54c-4.744-4.634-12.27-4.8-17.28-.603l-.757.602a12.25 12.25 0 0 0 0 17.623l35.562 34.726-35.562 34.734a12.237 12.237 0 0 0 0 17.612l.757.612c2.39 1.995 5.308 3.044 8.261 3.044 3.264 0 6.528-1.221 9.019-3.656l44.58-43.54a12.254 12.254 0 0 0 0-17.614M31.694 22.942l-8.379.063c-.252-1.638-.819-2.835-1.827-3.465-1.008-.693-2.457-1.008-4.347-1.008-1.575 0-2.835.252-3.717.819s-1.323 1.386-1.323 2.394q0 1.701 1.512 2.457c1.008.441 2.835.945 5.418 1.512.504.063.82.126 1.008.189 1.512.252 2.772.504 3.654.756s2.016.63 3.276 1.134c1.323.504 2.331 1.134 3.024 1.764.756.63 1.386 1.512 1.89 2.583.567 1.134.82 2.394.82 3.78 0 3.402-1.324 6.111-3.97 8.064-2.646 2.016-6.237 2.961-10.899 2.961-4.41 0-8-.945-10.899-2.835q-4.252-2.835-4.347-8.694h8.505c.315 3.654 2.646 5.418 6.93 5.418 1.827 0 3.276-.315 4.347-1.071s1.575-1.701 1.575-2.961c0-1.197-.44-2.079-1.449-2.583-.945-.504-2.709-1.008-5.355-1.638-.189 0-.378-.063-.504-.126-.252-.063-.945-.189-1.953-.441-1.008-.189-1.7-.315-2.079-.441-.378-.126-1.07-.315-1.953-.567-.882-.252-1.575-.441-2.016-.693-.378-.252-.945-.504-1.638-.882s-1.197-.756-1.575-1.197a18 18 0 0 1-1.07-1.449c-.379-.567-.694-1.197-.82-1.953a13 13 0 0 1-.189-2.331c0-3.15 1.197-5.607 3.717-7.371 2.457-1.701 5.985-2.583 10.521-2.583 4.032 0 7.371.882 10.017 2.52 2.583 1.701 3.97 4.347 4.095 7.875M68.62 35.92c-1.008 3.528-2.898 6.237-5.607 8.127-2.709 1.953-5.922 2.898-9.702 2.898-4.977 0-9.009-1.512-12.033-4.662-3.024-3.087-4.536-7.182-4.536-12.348 0-5.04 1.512-9.198 4.6-12.474q4.535-4.914 11.717-4.914c4.914 0 8.82 1.701 11.718 5.04s4.347 7.875 4.347 13.545v.882h-23.31c0 2.835.693 4.977 2.016 6.426 1.323 1.512 3.213 2.205 5.607 2.205q4.725 0 6.615-4.725zm-8.63-9.576c-.19-2.142-.883-3.843-2.08-5.229q-1.701-2.079-4.914-2.079c-1.953 0-3.59.693-4.914 1.953-1.26 1.323-2.079 3.087-2.33 5.355zM124.324 46h-9.072V26.596c0-2.142-.378-3.78-1.008-4.914-.693-1.134-2.079-1.764-4.158-1.764-4.158 0-6.237 2.646-6.237 7.812V46h-8.946V26.218c0-2.016-.378-3.528-1.008-4.662-.693-1.134-2.016-1.701-3.906-1.701-4.347 0-6.49 2.835-6.49 8.505V46h-8.945V13.492h8.505v4.473c2.52-3.528 5.985-5.355 10.332-5.355 4.473 0 7.56 1.827 9.198 5.355 2.583-3.528 6.111-5.355 10.647-5.355 3.528 0 6.3 1.071 8.19 3.15s2.898 4.851 2.898 8.379zm15.451-32.508v4.032c2.331-3.276 5.67-4.914 10.08-4.914 4.347 0 7.875 1.575 10.521 4.725s3.969 7.371 3.969 12.6c0 5.103-1.323 9.198-3.906 12.285s-5.985 4.599-10.206 4.599c-4.41 0-7.749-1.575-10.017-4.851v15.561h-8.883V13.492zm7.875 6.3c-2.457 0-4.347.882-5.733 2.646s-2.016 4.221-2.016 7.371q0 4.725 2.079 7.371c1.386 1.764 3.276 2.646 5.733 2.646 2.394 0 4.221-.882 5.607-2.646s2.079-4.158 2.079-7.245c0-3.15-.693-5.607-2.079-7.434-1.386-1.764-3.276-2.709-5.67-2.709m43.301-6.867v8.253c-1.26-.252-2.457-.378-3.465-.378-2.961 0-5.103.945-6.489 2.835s-2.079 4.347-2.079 7.497V46h-8.946V13.492h8.505v5.985c2.142-4.473 5.607-6.741 10.521-6.741.378 0 1.071.063 1.953.189M223.78 35.92c-1.008 3.528-2.898 6.237-5.607 8.127-2.709 1.953-5.922 2.898-9.702 2.898-4.977 0-9.009-1.512-12.033-4.662-3.024-3.087-4.536-7.182-4.536-12.348 0-5.04 1.512-9.198 4.599-12.474q4.536-4.914 11.718-4.914c4.914 0 8.82 1.701 11.718 5.04s4.347 7.875 4.347 13.545v.882h-23.31c0 2.835.693 4.977 2.016 6.426 1.323 1.512 3.213 2.205 5.607 2.205q4.725 0 6.615-4.725zm-8.631-9.576c-.189-2.142-.882-3.843-2.079-5.229q-1.701-2.079-4.914-2.079c-1.953 0-3.591.693-4.914 1.953-1.26 1.323-2.079 3.087-2.331 5.355zM55.726 106h-9.072V86.596c0-2.142-.378-3.78-1.008-4.914-.693-1.134-2.079-1.764-4.158-1.764-4.158 0-6.237 2.646-6.237 7.812V106h-8.946V86.218c0-2.016-.378-3.528-1.008-4.662-.693-1.134-2.016-1.701-3.906-1.701-4.347 0-6.489 2.835-6.489 8.505V106H5.956V73.492h8.505v4.473c2.52-3.528 5.985-5.355 10.332-5.355 4.473 0 7.56 1.827 9.198 5.355 2.583-3.528 6.111-5.355 10.647-5.355 3.528 0 6.3 1.071 8.19 3.15s2.898 4.851 2.898 8.379zm16.207-44.856v7.56h-8.946v-7.56zm0 12.348V106h-8.946V73.492zm23.046-.945c4.977 0 9.009 1.575 12.033 4.725s4.599 7.308 4.599 12.474c0 5.229-1.575 9.387-4.599 12.537s-7.119 4.725-12.159 4.725c-5.103 0-9.198-1.575-12.222-4.725-3.087-3.15-4.599-7.308-4.599-12.537 0-5.166 1.512-9.324 4.662-12.474q4.63-4.725 12.285-4.725m-.252 6.804q-3.591 0-5.67 2.835c-1.386 1.827-2.079 4.347-2.079 7.623q0 4.914 2.08 7.749c1.385 1.827 3.275 2.772 5.795 2.772 2.457 0 4.347-.945 5.733-2.835s2.079-4.473 2.079-7.812c0-3.213-.756-5.733-2.142-7.56s-3.339-2.772-5.796-2.772m31.962-18.207V106h-8.946V61.144zM163.973 106h-9.135a16.3 16.3 0 0 1-.63-3.15c-2.709 2.772-6.237 4.095-10.521 4.095-3.591 0-6.426-.819-8.505-2.583-2.016-1.764-3.087-4.158-3.087-7.245 0-1.386.189-2.583.567-3.654a6.75 6.75 0 0 1 1.764-2.646 25 25 0 0 1 2.331-1.764q1.134-.661 3.024-1.134c1.323-.252 2.394-.504 3.15-.63.819-.126 1.953-.315 3.402-.504 3.15-.378 5.229-.819 6.3-1.323 1.071-.441 1.638-1.323 1.638-2.583q0-4.347-5.859-4.347-3.119 0-4.536 1.134c-1.008.756-1.638 2.016-1.89 3.843h-8.379c.504-7.308 5.481-10.962 15.057-10.962q14.175 0 14.175 10.584V97.18c0 4.158.378 7.056 1.134 8.82m-9.828-15.813c-1.008.63-3.15 1.26-6.3 1.764-2.646.378-4.347.945-5.166 1.575-.882.756-1.386 1.89-1.386 3.276 0 1.323.441 2.394 1.323 3.15q1.323 1.134 3.591 1.134c2.394 0 4.347-.63 5.796-1.89s2.142-3.087 2.142-5.355zM200.527 106h-9.072V87.037c0-2.268-.378-4.032-1.134-5.229s-2.268-1.827-4.41-1.827c-4.725 0-7.056 2.898-7.056 8.568V106h-8.883V73.492h8.505v4.536c2.646-3.591 6.237-5.418 10.773-5.418 3.465 0 6.237 1.008 8.253 3.024s3.024 4.914 3.024 8.631zm24.619-32.508v6.111h-6.615v15.309c0 .945 0 1.638.063 2.079 0 .441.189.882.441 1.386.252.441.63.756 1.134.882q.756.189 2.268.189c1.071 0 1.953 0 2.709-.126v6.804a64 64 0 0 1-5.418.252c-3.906 0-6.615-.63-8.001-2.016q-2.079-2.079-2.079-7.938V79.54h-5.418v-6.048h5.418v-9.828h8.883v9.828z" opacity=".6"/></svg>
